images/3233626.svg

<?xml version="1.0" encoding="UTF-8"?>
<svg xmlns="http://www.w3.org/2000/svg" xmlns:xlink="http://www.w3.org/1999/xlink" width="300pt" height="300pt" viewBox="0 0 300 300" version="1.1">
<defs>
<g>
<symbol overflow="visible" id="glyph0-0">
<path style="stroke:none;" d="M 0.453125 1.59375 L 0.453125 -6.34375 L 4.953125 -6.34375 L 4.953125 1.59375 Z M 0.953125 1.09375 L 4.453125 1.09375 L 4.453125 -5.84375 L 0.953125 -5.84375 Z M 0.953125 1.09375 "/>
</symbol>
<symbol overflow="visible" id="glyph0-1">
<path style="stroke:none;" d="M 3.546875 -5.953125 C 2.898438 -5.953125 2.382812 -5.710938 2 -5.234375 C 1.625 -4.753906 1.4375 -4.101562 1.4375 -3.28125 C 1.4375 -2.445312 1.625 -1.789062 2 -1.3125 C 2.382812 -0.832031 2.898438 -0.59375 3.546875 -0.59375 C 4.191406 -0.59375 4.703125 -0.832031 5.078125 -1.3125 C 5.453125 -1.789062 5.640625 -2.445312 5.640625 -3.28125 C 5.640625 -4.101562 5.453125 -4.753906 5.078125 -5.234375 C 4.703125 -5.710938 4.191406 -5.953125 3.546875 -5.953125 Z M 3.546875 -6.6875 C 4.460938 -6.6875 5.195312 -6.375 5.75 -5.75 C 6.300781 -5.132812 6.578125 -4.3125 6.578125 -3.28125 C 6.578125 -2.238281 6.300781 -1.410156 5.75 -0.796875 C 5.195312 -0.179688 4.460938 0.125 3.546875 0.125 C 2.617188 0.125 1.878906 -0.179688 1.328125 -0.796875 C 0.773438 -1.410156 0.5 -2.238281 0.5 -3.28125 C 0.5 -4.3125 0.773438 -5.132812 1.328125 -5.75 C 1.878906 -6.375 2.617188 -6.6875 3.546875 -6.6875 Z M 3.546875 -6.6875 "/>
</symbol>
<symbol overflow="visible" id="glyph0-2">
<path style="stroke:none;" d="M 0.890625 -6.5625 L 2.078125 -6.5625 L 4.984375 -1.078125 L 4.984375 -6.5625 L 5.84375 -6.5625 L 5.84375 0 L 4.65625 0 L 1.75 -5.484375 L 1.75 0 L 0.890625 0 Z M 0.890625 -6.5625 "/>
</symbol>
<symbol overflow="visible" id="glyph0-3">
<path style="stroke:none;" d="M 0.890625 -6.5625 L 4.65625 -6.5625 L 4.65625 -5.8125 L 1.765625 -5.8125 L 1.765625 -3.875 L 4.375 -3.875 L 4.375 -3.140625 L 1.765625 -3.140625 L 1.765625 0 L 0.890625 0 Z M 0.890625 -6.5625 "/>
</symbol>
</g>
</defs>
<g id="surface43497">
<rect x="0" y="0" width="300" height="300" style="fill:rgb(100%,100%,100%);fill-opacity:1;stroke:none;"/>
<path style="fill:none;stroke-width:1.2;stroke-linecap:butt;stroke-linejoin:miter;stroke:rgb(0%,0%,0%);stroke-opacity:1;stroke-miterlimit:10;" d="M 126.355469 214.730469 L 131.902344 205.964844 "/>
<path style="fill:none;stroke-width:1.2;stroke-linecap:butt;stroke-linejoin:miter;stroke:rgb(100%,0%,0%);stroke-opacity:1;stroke-miterlimit:10;" d="M 131.902344 205.964844 L 137.449219 197.195312 "/>
<path style="fill:none;stroke-width:1.2;stroke-linecap:butt;stroke-linejoin:miter;stroke:rgb(100%,0%,0%);stroke-opacity:1;stroke-miterlimit:10;" d="M 137.449219 197.195312 L 132.632812 188.011719 "/>
<path style="fill:none;stroke-width:1.2;stroke-linecap:butt;stroke-linejoin:miter;stroke:rgb(0%,0%,0%);stroke-opacity:1;stroke-miterlimit:10;" d="M 132.632812 188.011719 L 127.8125 178.824219 "/>
<path style=" stroke:none;fill-rule:nonzero;fill:rgb(100%,100%,100%);fill-opacity:1;" d="M 133.449219 191.695312 L 141.449219 191.695312 L 141.449219 202.695312 L 133.449219 202.695312 Z M 133.449219 191.695312 "/>
<g style="fill:rgb(100%,0%,0%);fill-opacity:1;">
  <use xlink:href="#glyph0-1" x="133.449219" y="200.358398"/>
</g>
<path style="fill:none;stroke-width:1.2;stroke-linecap:butt;stroke-linejoin:miter;stroke:rgb(0%,0%,0%);stroke-opacity:1;stroke-miterlimit:10;" d="M 127.8125 178.824219 L 138.90625 161.289062 "/>
<path style="fill:none;stroke-width:1.2;stroke-linecap:butt;stroke-linejoin:miter;stroke:rgb(0%,0%,0%);stroke-opacity:1;stroke-miterlimit:10;" d="M 138.90625 161.289062 L 134.085938 152.101562 "/>
<path style="fill:none;stroke-width:1.2;stroke-linecap:butt;stroke-linejoin:miter;stroke:rgb(0%,0%,100%);stroke-opacity:1;stroke-miterlimit:10;" d="M 134.085938 152.101562 L 129.269531 142.914062 "/>
<path style="fill:none;stroke-width:1.2;stroke-linecap:butt;stroke-linejoin:miter;stroke:rgb(0%,0%,100%);stroke-opacity:1;stroke-miterlimit:10;" d="M 129.269531 142.914062 L 134.816406 134.148438 "/>
<path style="fill:none;stroke-width:1.2;stroke-linecap:butt;stroke-linejoin:miter;stroke:rgb(0%,0%,0%);stroke-opacity:1;stroke-miterlimit:10;" d="M 134.816406 134.148438 L 140.363281 125.382812 "/>
<path style="fill:none;stroke-width:1.2;stroke-linecap:butt;stroke-linejoin:miter;stroke:rgb(0%,0%,0%);stroke-opacity:1;stroke-miterlimit:10;" d="M 108.539062 142.074219 L 118.902344 142.496094 "/>
<path style="fill:none;stroke-width:1.2;stroke-linecap:butt;stroke-linejoin:miter;stroke:rgb(0%,0%,100%);stroke-opacity:1;stroke-miterlimit:10;" d="M 118.902344 142.496094 L 129.269531 142.914062 "/>
<path style=" stroke:none;fill-rule:nonzero;fill:rgb(100%,100%,100%);fill-opacity:1;" d="M 126.269531 137.414062 L 133.269531 137.414062 L 133.269531 148.414062 L 126.269531 148.414062 Z M 126.269531 137.414062 "/>
<g style="fill:rgb(0%,0%,100%);fill-opacity:1;">
  <use xlink:href="#glyph0-2" x="126.269531" y="146.077148"/>
</g>
<path style="fill:none;stroke-width:1.2;stroke-linecap:butt;stroke-linejoin:miter;stroke:rgb(0%,0%,0%);stroke-opacity:1;stroke-miterlimit:10;" d="M 140.363281 125.382812 L 150.726562 125.800781 "/>
<path style="fill:none;stroke-width:1.2;stroke-linecap:butt;stroke-linejoin:miter;stroke:rgb(0%,0%,100%);stroke-opacity:1;stroke-miterlimit:10;" d="M 150.726562 125.800781 L 161.09375 126.222656 "/>
<path style="fill:none;stroke-width:1.2;stroke-linecap:butt;stroke-linejoin:miter;stroke:rgb(0%,0%,0%);stroke-opacity:1;stroke-miterlimit:10;" d="M 142.632812 120.589844 L 150.925781 120.925781 "/>
<path style="fill:none;stroke-width:1.2;stroke-linecap:butt;stroke-linejoin:miter;stroke:rgb(0%,0%,100%);stroke-opacity:1;stroke-miterlimit:10;" d="M 150.925781 120.925781 L 159.21875 121.261719 "/>
<path style="fill:none;stroke-width:1.2;stroke-linecap:butt;stroke-linejoin:miter;stroke:rgb(0%,0%,0%);stroke-opacity:1;stroke-miterlimit:10;" d="M 130.726562 107.007812 L 140.363281 125.382812 "/>
<path style="fill:none;stroke-width:1.2;stroke-linecap:butt;stroke-linejoin:miter;stroke:rgb(0%,0%,100%);stroke-opacity:1;stroke-miterlimit:10;" d="M 161.09375 126.222656 L 166.640625 117.457031 "/>
<path style="fill:none;stroke-width:1.2;stroke-linecap:butt;stroke-linejoin:miter;stroke:rgb(0%,0%,0%);stroke-opacity:1;stroke-miterlimit:10;" d="M 166.640625 117.457031 L 172.1875 108.691406 "/>
<path style=" stroke:none;fill-rule:nonzero;fill:rgb(100%,100%,100%);fill-opacity:1;" d="M 158.09375 120.722656 L 165.09375 120.722656 L 165.09375 131.722656 L 158.09375 131.722656 Z M 158.09375 120.722656 "/>
<g style="fill:rgb(0%,0%,100%);fill-opacity:1;">
  <use xlink:href="#glyph0-2" x="158.09375" y="129.385742"/>
</g>
<path style="fill:none;stroke-width:1.2;stroke-linecap:butt;stroke-linejoin:miter;stroke:rgb(0%,0%,0%);stroke-opacity:1;stroke-miterlimit:10;" d="M 172.1875 108.691406 L 167.367188 99.503906 "/>
<path style="fill:none;stroke-width:1.2;stroke-linecap:butt;stroke-linejoin:miter;stroke:rgb(0%,0%,100%);stroke-opacity:1;stroke-miterlimit:10;" d="M 167.367188 99.503906 L 162.550781 90.316406 "/>
<path style="fill:none;stroke-width:1.2;stroke-linecap:butt;stroke-linejoin:miter;stroke:rgb(0%,0%,0%);stroke-opacity:1;stroke-miterlimit:10;" d="M 166.902344 109.121094 L 163.046875 101.769531 "/>
<path style="fill:none;stroke-width:1.2;stroke-linecap:butt;stroke-linejoin:miter;stroke:rgb(0%,0%,100%);stroke-opacity:1;stroke-miterlimit:10;" d="M 163.046875 101.769531 L 159.191406 94.421875 "/>
<path style="fill:none;stroke-width:1.2;stroke-linecap:butt;stroke-linejoin:miter;stroke:rgb(0%,0%,0%);stroke-opacity:1;stroke-miterlimit:10;" d="M 172.1875 108.691406 L 182.554688 109.109375 "/>
<path style="fill:none;stroke-width:1.2;stroke-linecap:butt;stroke-linejoin:miter;stroke:rgb(100%,0%,0%);stroke-opacity:1;stroke-miterlimit:10;" d="M 182.554688 109.109375 L 192.917969 109.53125 "/>
<path style="fill:none;stroke-width:1.2;stroke-linecap:butt;stroke-linejoin:miter;stroke:rgb(0%,0%,100%);stroke-opacity:1;stroke-miterlimit:10;" d="M 162.550781 90.316406 L 152.183594 89.894531 "/>
<path style="fill:none;stroke-width:1.2;stroke-linecap:butt;stroke-linejoin:miter;stroke:rgb(0%,0%,0%);stroke-opacity:1;stroke-miterlimit:10;" d="M 152.183594 89.894531 L 141.820312 89.472656 "/>
<path style=" stroke:none;fill-rule:nonzero;fill:rgb(100%,100%,100%);fill-opacity:1;" d="M 159.550781 84.816406 L 166.550781 84.816406 L 166.550781 95.816406 L 159.550781 95.816406 Z M 159.550781 84.816406 "/>
<g style="fill:rgb(0%,0%,100%);fill-opacity:1;">
  <use xlink:href="#glyph0-2" x="159.550781" y="93.479492"/>
</g>
<path style="fill:none;stroke-width:1.2;stroke-linecap:butt;stroke-linejoin:miter;stroke:rgb(0%,0%,0%);stroke-opacity:1;stroke-miterlimit:10;" d="M 141.820312 89.472656 L 130.726562 107.007812 "/>
<path style="fill:none;stroke-width:1.2;stroke-linecap:butt;stroke-linejoin:miter;stroke:rgb(0%,0%,0%);stroke-opacity:1;stroke-miterlimit:10;" d="M 144.835938 93.839844 L 135.960938 107.863281 "/>
<path style="fill:none;stroke-width:1.2;stroke-linecap:butt;stroke-linejoin:miter;stroke:rgb(0%,0%,0%);stroke-opacity:1;stroke-miterlimit:10;" d="M 130.726562 107.007812 L 120.359375 106.585938 "/>
<path style="fill:none;stroke-width:1.2;stroke-linecap:butt;stroke-linejoin:miter;stroke:rgb(0%,0%,100%);stroke-opacity:1;stroke-miterlimit:10;" d="M 120.359375 106.585938 L 109.992188 106.167969 "/>
<path style="fill:none;stroke-width:1.2;stroke-linecap:butt;stroke-linejoin:miter;stroke:rgb(0%,0%,100%);stroke-opacity:1;stroke-miterlimit:10;" d="M 109.992188 106.167969 L 104.445312 114.933594 "/>
<path style="fill:none;stroke-width:1.2;stroke-linecap:butt;stroke-linejoin:miter;stroke:rgb(0%,0%,0%);stroke-opacity:1;stroke-miterlimit:10;" d="M 104.445312 114.933594 L 98.898438 123.699219 "/>
<path style="fill:none;stroke-width:1.2;stroke-linecap:butt;stroke-linejoin:miter;stroke:rgb(0%,0%,100%);stroke-opacity:1;stroke-miterlimit:10;" d="M 113.011719 110.53125 L 108.574219 117.542969 "/>
<path style="fill:none;stroke-width:1.2;stroke-linecap:butt;stroke-linejoin:miter;stroke:rgb(0%,0%,0%);stroke-opacity:1;stroke-miterlimit:10;" d="M 108.574219 117.542969 L 104.136719 124.558594 "/>
<path style=" stroke:none;fill-rule:nonzero;fill:rgb(100%,100%,100%);fill-opacity:1;" d="M 106.992188 100.667969 L 113.992188 100.667969 L 113.992188 111.667969 L 106.992188 111.667969 Z M 106.992188 100.667969 "/>
<g style="fill:rgb(0%,0%,100%);fill-opacity:1;">
  <use xlink:href="#glyph0-2" x="106.992188" y="109.331055"/>
</g>
<path style="fill:none;stroke-width:1.2;stroke-linecap:butt;stroke-linejoin:miter;stroke:rgb(0%,0%,0%);stroke-opacity:1;stroke-miterlimit:10;" d="M 98.898438 123.699219 L 108.539062 142.074219 "/>
<path style="fill:none;stroke-width:1.2;stroke-linecap:butt;stroke-linejoin:miter;stroke:rgb(0%,0%,0%);stroke-opacity:1;stroke-miterlimit:10;" d="M 98.898438 123.699219 L 78.167969 122.859375 "/>
<path style="fill:none;stroke-width:1.2;stroke-linecap:butt;stroke-linejoin:miter;stroke:rgb(0%,0%,0%);stroke-opacity:1;stroke-miterlimit:10;" d="M 106.476562 140.769531 L 100.929688 149.535156 "/>
<path style="fill:none;stroke-width:1.2;stroke-linecap:butt;stroke-linejoin:miter;stroke:rgb(100%,0%,0%);stroke-opacity:1;stroke-miterlimit:10;" d="M 100.929688 149.535156 L 95.382812 158.300781 "/>
<path style="fill:none;stroke-width:1.2;stroke-linecap:butt;stroke-linejoin:miter;stroke:rgb(0%,0%,0%);stroke-opacity:1;stroke-miterlimit:10;" d="M 110.601562 143.378906 L 105.054688 152.144531 "/>
<path style="fill:none;stroke-width:1.2;stroke-linecap:butt;stroke-linejoin:miter;stroke:rgb(100%,0%,0%);stroke-opacity:1;stroke-miterlimit:10;" d="M 105.054688 152.144531 L 99.507812 160.914062 "/>
<path style=" stroke:none;fill-rule:nonzero;fill:rgb(100%,100%,100%);fill-opacity:1;" d="M 89.445312 154.109375 L 97.445312 154.109375 L 97.445312 165.109375 L 89.445312 165.109375 Z M 89.445312 154.109375 "/>
<g style="fill:rgb(100%,0%,0%);fill-opacity:1;">
  <use xlink:href="#glyph0-1" x="89.445312" y="162.772461"/>
</g>
<path style="fill:none;stroke-width:1.2;stroke-linecap:butt;stroke-linejoin:miter;stroke:rgb(0%,0%,0%);stroke-opacity:1;stroke-miterlimit:10;" d="M 78.167969 122.859375 L 68.53125 104.484375 "/>
<path style="fill:none;stroke-width:1.2;stroke-linecap:butt;stroke-linejoin:miter;stroke:rgb(0%,0%,0%);stroke-opacity:1;stroke-miterlimit:10;" d="M 72.882812 123.289062 L 65.171875 108.589844 "/>
<path style="fill:none;stroke-width:1.2;stroke-linecap:butt;stroke-linejoin:miter;stroke:rgb(0%,0%,0%);stroke-opacity:1;stroke-miterlimit:10;" d="M 67.074219 140.390625 L 78.167969 122.859375 "/>
<path style="fill:none;stroke-width:1.2;stroke-linecap:butt;stroke-linejoin:miter;stroke:rgb(0%,0%,0%);stroke-opacity:1;stroke-miterlimit:10;" d="M 68.53125 104.484375 L 47.800781 103.644531 "/>
<path style="fill:none;stroke-width:1.2;stroke-linecap:butt;stroke-linejoin:miter;stroke:rgb(0%,0%,0%);stroke-opacity:1;stroke-miterlimit:10;" d="M 47.800781 103.644531 L 36.707031 121.175781 "/>
<path style="fill:none;stroke-width:1.2;stroke-linecap:butt;stroke-linejoin:miter;stroke:rgb(0%,0%,0%);stroke-opacity:1;stroke-miterlimit:10;" d="M 50.816406 108.007812 L 41.941406 122.035156 "/>
<path style="fill:none;stroke-width:1.2;stroke-linecap:butt;stroke-linejoin:miter;stroke:rgb(0%,0%,0%);stroke-opacity:1;stroke-miterlimit:10;" d="M 47.800781 103.644531 L 42.980469 94.457031 "/>
<path style="fill:none;stroke-width:1.2;stroke-linecap:butt;stroke-linejoin:miter;stroke:rgb(20%,80%,80%);stroke-opacity:1;stroke-miterlimit:10;" d="M 42.980469 94.457031 L 38.164062 85.269531 "/>
<path style="fill:none;stroke-width:1.2;stroke-linecap:butt;stroke-linejoin:miter;stroke:rgb(0%,0%,0%);stroke-opacity:1;stroke-miterlimit:10;" d="M 36.707031 121.175781 L 46.34375 139.550781 "/>
<path style="fill:none;stroke-width:1.2;stroke-linecap:butt;stroke-linejoin:miter;stroke:rgb(0%,0%,0%);stroke-opacity:1;stroke-miterlimit:10;" d="M 46.34375 139.550781 L 67.074219 140.390625 "/>
<path style="fill:none;stroke-width:1.2;stroke-linecap:butt;stroke-linejoin:miter;stroke:rgb(0%,0%,0%);stroke-opacity:1;stroke-miterlimit:10;" d="M 48.613281 134.757812 L 65.199219 135.429688 "/>
<path style="fill:none;stroke-width:1.2;stroke-linecap:butt;stroke-linejoin:miter;stroke:rgb(0%,0%,0%);stroke-opacity:1;stroke-miterlimit:10;" d="M 46.34375 139.550781 L 40.796875 148.316406 "/>
<path style="fill:none;stroke-width:1.2;stroke-linecap:butt;stroke-linejoin:miter;stroke:rgb(20%,80%,80%);stroke-opacity:1;stroke-miterlimit:10;" d="M 40.796875 148.316406 L 35.25 157.085938 "/>
<path style=" stroke:none;fill-rule:nonzero;fill:rgb(100%,100%,100%);fill-opacity:1;" d="M 29.25 151.585938 L 35.25 151.585938 L 35.25 162.585938 L 29.25 162.585938 Z M 29.25 151.585938 "/>
<g style="fill:rgb(20%,80%,80%);fill-opacity:1;">
  <use xlink:href="#glyph0-3" x="29.25" y="160.249023"/>
</g>
<path style=" stroke:none;fill-rule:nonzero;fill:rgb(100%,100%,100%);fill-opacity:1;" d="M 32.164062 79.769531 L 38.164062 79.769531 L 38.164062 90.769531 L 32.164062 90.769531 Z M 32.164062 79.769531 "/>
<g style="fill:rgb(20%,80%,80%);fill-opacity:1;">
  <use xlink:href="#glyph0-3" x="32.164062" y="88.432617"/>
</g>
<path style="fill:none;stroke-width:1.2;stroke-linecap:butt;stroke-linejoin:miter;stroke:rgb(100%,0%,0%);stroke-opacity:1;stroke-miterlimit:10;" d="M 192.917969 109.53125 L 197.738281 118.71875 "/>
<path style="fill:none;stroke-width:1.2;stroke-linecap:butt;stroke-linejoin:miter;stroke:rgb(0%,0%,0%);stroke-opacity:1;stroke-miterlimit:10;" d="M 197.738281 118.71875 L 202.554688 127.90625 "/>
<path style=" stroke:none;fill-rule:nonzero;fill:rgb(100%,100%,100%);fill-opacity:1;" d="M 188.917969 104.03125 L 196.917969 104.03125 L 196.917969 115.03125 L 188.917969 115.03125 Z M 188.917969 104.03125 "/>
<g style="fill:rgb(100%,0%,0%);fill-opacity:1;">
  <use xlink:href="#glyph0-1" x="188.917969" y="112.694336"/>
</g>
<path style="fill:none;stroke-width:1.2;stroke-linecap:butt;stroke-linejoin:miter;stroke:rgb(0%,0%,0%);stroke-opacity:1;stroke-miterlimit:10;" d="M 202.554688 127.90625 L 223.289062 128.746094 "/>
<path style="fill:none;stroke-width:1.2;stroke-linecap:butt;stroke-linejoin:miter;stroke:rgb(0%,0%,0%);stroke-opacity:1;stroke-miterlimit:10;" d="M 223.289062 128.746094 L 232.925781 147.121094 "/>
<path style="fill:none;stroke-width:1.2;stroke-linecap:butt;stroke-linejoin:miter;stroke:rgb(0%,0%,0%);stroke-opacity:1;stroke-miterlimit:10;" d="M 228.574219 128.316406 L 236.285156 143.015625 "/>
<path style="fill:none;stroke-width:1.2;stroke-linecap:butt;stroke-linejoin:miter;stroke:rgb(0%,0%,0%);stroke-opacity:1;stroke-miterlimit:10;" d="M 234.382812 111.210938 L 223.289062 128.746094 "/>
<path style="fill:none;stroke-width:1.2;stroke-linecap:butt;stroke-linejoin:miter;stroke:rgb(0%,0%,0%);stroke-opacity:1;stroke-miterlimit:10;" d="M 232.925781 147.121094 L 253.65625 147.960938 "/>
<path style="fill:none;stroke-width:1.2;stroke-linecap:butt;stroke-linejoin:miter;stroke:rgb(0%,0%,0%);stroke-opacity:1;stroke-miterlimit:10;" d="M 253.65625 147.960938 L 264.75 130.425781 "/>
<path style="fill:none;stroke-width:1.2;stroke-linecap:butt;stroke-linejoin:miter;stroke:rgb(0%,0%,0%);stroke-opacity:1;stroke-miterlimit:10;" d="M 250.640625 143.597656 L 259.515625 129.570312 "/>
<path style="fill:none;stroke-width:1.2;stroke-linecap:butt;stroke-linejoin:miter;stroke:rgb(0%,0%,0%);stroke-opacity:1;stroke-miterlimit:10;" d="M 264.75 130.425781 L 255.113281 112.054688 "/>
<path style="fill:none;stroke-width:1.2;stroke-linecap:butt;stroke-linejoin:miter;stroke:rgb(0%,0%,0%);stroke-opacity:1;stroke-miterlimit:10;" d="M 255.113281 112.054688 L 234.382812 111.210938 "/>
<path style="fill:none;stroke-width:1.2;stroke-linecap:butt;stroke-linejoin:miter;stroke:rgb(0%,0%,0%);stroke-opacity:1;stroke-miterlimit:10;" d="M 252.839844 116.847656 L 236.257812 116.175781 "/>
</g>
</svg>

<svg xmlns="http://www.w3.org/2000/svg" xmlns:xlink="http://www.w3.org/1999/xlink" width="300pt" height="300pt" viewBox="0 0 300 300"><defs><symbol overflow="visible"><path d="M.453 1.594v-7.938h4.5v7.938zm.5-.5h3.5v-6.938h-3.5zm0 0"/></symbol><symbol overflow="visible" id="a"><path d="M3.547-5.953c-.65 0-1.164.242-1.547.72-.375.48-.563 1.13-.563 1.952 0 .835.188 1.49.563 1.967.383.48.898.72 1.547.72.644 0 1.156-.24 1.53-.72.376-.476.564-1.132.564-1.968 0-.822-.187-1.474-.562-1.954-.375-.477-.887-.72-1.53-.72zm0-.734c.914 0 1.648.312 2.203.937.55.617.828 1.438.828 2.47 0 1.042-.277 1.87-.828 2.483-.555.617-1.29.922-2.203.922-.93 0-1.668-.305-2.22-.922C.774-1.41.5-2.237.5-3.28c0-1.033.273-1.853.828-2.47.55-.625 1.29-.938 2.22-.938zm0 0"/></symbol><symbol overflow="visible" id="b"><path d="M.89-6.563H2.08l2.906 5.485v-5.484h.86V0H4.656L1.75-5.484V0H.89zm0 0"/></symbol><symbol overflow="visible" id="c"><path d="M.89-6.563h3.766v.75h-2.89v1.938h2.61v.734h-2.61V0H.89zm0 0"/></symbol></defs><g><path fill="#fff" d="M0 0h300v300H0z"/><path d="M126.355 214.73l5.547-8.765" stroke-width="1.2" stroke="#000" stroke-miterlimit="10" fill="none"/><path d="M131.902 205.965l5.547-8.77M137.45 197.195l-4.817-9.183" stroke-width="1.2" stroke="#f00" stroke-miterlimit="10" fill="none"/><path d="M132.633 188.012l-4.82-9.188" stroke-width="1.2" stroke="#000" stroke-miterlimit="10" fill="none"/><path d="M133.45 191.695h8v11h-8zm0 0" fill="#fff"/><use xlink:href="#a" x="133.449" y="200.358" fill="#f00"/><path d="M127.813 178.824l11.093-17.535M138.906 161.29l-4.82-9.188" stroke-width="1.2" stroke="#000" stroke-miterlimit="10" fill="none"/><path d="M134.086 152.102l-4.816-9.188M129.27 142.914l5.546-8.766" stroke-width="1.2" stroke="#00f" stroke-miterlimit="10" fill="none"/><path d="M134.816 134.148l5.547-8.765M108.54 142.074l10.362.422" stroke-width="1.2" stroke="#000" stroke-miterlimit="10" fill="none"/><path d="M118.902 142.496l10.368.418" stroke-width="1.2" stroke="#00f" stroke-miterlimit="10" fill="none"/><path d="M126.27 137.414h7v11h-7zm0 0" fill="#fff"/><use xlink:href="#b" x="126.27" y="146.077" fill="#00f"/><path d="M140.363 125.383l10.364.418" stroke-width="1.2" stroke="#000" stroke-miterlimit="10" fill="none"/><path d="M150.727 125.8l10.367.423" stroke-width="1.2" stroke="#00f" stroke-miterlimit="10" fill="none"/><path d="M142.633 120.59l8.293.336" stroke-width="1.2" stroke="#000" stroke-miterlimit="10" fill="none"/><path d="M150.926 120.926l8.293.336" stroke-width="1.2" stroke="#00f" stroke-miterlimit="10" fill="none"/><path d="M130.727 107.008l9.636 18.375" stroke-width="1.2" stroke="#000" stroke-miterlimit="10" fill="none"/><path d="M161.094 126.223l5.547-8.766" stroke-width="1.2" stroke="#00f" stroke-miterlimit="10" fill="none"/><path d="M166.64 117.457l5.548-8.766" stroke-width="1.2" stroke="#000" stroke-miterlimit="10" fill="none"/><path d="M158.094 120.723h7v11h-7zm0 0" fill="#fff"/><use xlink:href="#b" x="158.094" y="129.386" fill="#00f"/><path d="M172.188 108.69l-4.82-9.186" stroke-width="1.2" stroke="#000" stroke-miterlimit="10" fill="none"/><path d="M167.367 99.504l-4.816-9.188" stroke-width="1.2" stroke="#00f" stroke-miterlimit="10" fill="none"/><path d="M166.902 109.12l-3.855-7.35" stroke-width="1.2" stroke="#000" stroke-miterlimit="10" fill="none"/><path d="M163.047 101.77l-3.856-7.348" stroke-width="1.2" stroke="#00f" stroke-miterlimit="10" fill="none"/><path d="M172.188 108.69l10.367.42" stroke-width="1.2" stroke="#000" stroke-miterlimit="10" fill="none"/><path d="M182.555 109.11l10.363.42" stroke-width="1.2" stroke="#f00" stroke-miterlimit="10" fill="none"/><path d="M162.55 90.316l-10.366-.42" stroke-width="1.2" stroke="#00f" stroke-miterlimit="10" fill="none"/><path d="M152.184 89.895l-10.364-.422" stroke-width="1.2" stroke="#000" stroke-miterlimit="10" fill="none"/><path d="M159.55 84.816h7v11h-7zm0 0" fill="#fff"/><use xlink:href="#b" x="159.551" y="93.479" fill="#00f"/><path d="M141.82 89.473l-11.093 17.535M144.836 93.84l-8.875 14.023M130.727 107.008l-10.368-.422" stroke-width="1.2" stroke="#000" stroke-miterlimit="10" fill="none"/><path d="M120.36 106.586l-10.368-.418M109.992 106.168l-5.547 8.766" stroke-width="1.2" stroke="#00f" stroke-miterlimit="10" fill="none"/><path d="M104.445 114.934l-5.547 8.765" stroke-width="1.2" stroke="#000" stroke-miterlimit="10" fill="none"/><path d="M113.012 110.53l-4.438 7.013" stroke-width="1.2" stroke="#00f" stroke-miterlimit="10" fill="none"/><path d="M108.574 117.543l-4.437 7.016" stroke-width="1.2" stroke="#000" stroke-miterlimit="10" fill="none"/><path d="M106.992 100.668h7v11h-7zm0 0" fill="#fff"/><use xlink:href="#b" x="106.992" y="109.331" fill="#00f"/><path d="M98.898 123.7l9.64 18.374M98.898 123.7l-20.73-.84M106.477 140.77l-5.547 8.765" stroke-width="1.2" stroke="#000" stroke-miterlimit="10" fill="none"/><path d="M100.93 149.535l-5.547 8.766" stroke-width="1.2" stroke="#f00" stroke-miterlimit="10" fill="none"/><path d="M110.602 143.38l-5.547 8.765" stroke-width="1.2" stroke="#000" stroke-miterlimit="10" fill="none"/><path d="M105.055 152.145l-5.547 8.77" stroke-width="1.2" stroke="#f00" stroke-miterlimit="10" fill="none"/><path d="M89.445 154.11h8v11h-8zm0 0" fill="#fff"/><use xlink:href="#a" x="89.445" y="162.772" fill="#f00"/><path d="M78.168 122.86l-9.637-18.376M72.883 123.29l-7.71-14.7M67.074 140.39l11.094-17.53M68.53 104.484l-20.73-.84M47.8 103.645l-11.093 17.53M50.816 108.008l-8.875 14.027M47.8 103.645l-4.82-9.188" stroke-width="1.2" stroke="#000" stroke-miterlimit="10" fill="none"/><path d="M42.98 94.457l-4.816-9.187" stroke-width="1.2" stroke="#3cc" stroke-miterlimit="10" fill="none"/><path d="M36.707 121.176l9.637 18.375M46.344 139.55l20.73.84M48.613 134.758l16.586.672M46.344 139.55l-5.547 8.766" stroke-width="1.2" stroke="#000" stroke-miterlimit="10" fill="none"/><path d="M40.797 148.316l-5.547 8.77" stroke-width="1.2" stroke="#3cc" stroke-miterlimit="10" fill="none"/><path d="M29.25 151.586h6v11h-6zm0 0" fill="#fff"/><use xlink:href="#c" x="29.25" y="160.249" fill="#3cc"/><path d="M32.164 79.77h6v11h-6zm0 0" fill="#fff"/><use xlink:href="#c" x="32.164" y="88.433" fill="#3cc"/><path d="M192.918 109.53l4.82 9.19" stroke-width="1.2" stroke="#f00" stroke-miterlimit="10" fill="none"/><path d="M197.738 118.72l4.817 9.186" stroke-width="1.2" stroke="#000" stroke-miterlimit="10" fill="none"/><path d="M188.918 104.03h8v11h-8zm0 0" fill="#fff"/><use xlink:href="#a" x="188.918" y="112.694" fill="#f00"/><path d="M202.555 127.906l20.734.84M223.29 128.746l9.636 18.375M228.574 128.316l7.71 14.7M234.383 111.21l-11.094 17.536M232.926 147.12l20.73.84M253.656 147.96l11.094-17.534M250.64 143.598l8.876-14.028M264.75 130.426l-9.637-18.37M255.113 112.055l-20.73-.844M252.84 116.848l-16.582-.672" stroke-width="1.2" stroke="#000" stroke-miterlimit="10" fill="none"/></g></svg>
